X:79
T:The Countrey Coll
R:Jig
Z:1998 by Norman Bradley <normanb@ix.netcom.com>
M:6/8
L:1/8
Q:110
K:G
g2d gdG|B>cd e2d|efg fga|dge f2d||e3d2B|cde d2B|gd2 B>ce|gd2 B>ce|Aa2b2g||

